X: 1
T: Carolan's Devotion
M: 3/4
L: 1/8
R: waltz
K: Gmaj
g/2a/2b|c'2b/2a/2g g/2a/2b|ag fe e/2f/2g|ed cB AG|G4AB|
c2ce dc|d2eg ae|dc BA AB| &quot;Tr&quot;A4:|
A/2G/2F|E2A2A2|A3/2B/2 A3/2G/2 FG|E2G2G2|G3/2A/2 G3/2F/2 EG|
E2c2c2|cd Bc AB|G2g2ga| &quot;Tr&quot;g4g/2a/2b|
c'2c'b ab|c'2e2e2|e3/2d/2 c3/2d/2 e3/2f/2|g2B2B2|
c3/2B/2 A3/2B/2 c3/2d/2|e2A2G/2A/2B|AG FE EF|E4d/2e/2f|
g2g2g/2a/2b|ag fe e/2f/2g|ed cB AG|&quot;Tr&quot;G4G/2A/2B|
c2ce dc|d2eg ae|dc BA AB| &quot;Tr&quot;A4:|
